X:144
T:Haymakers. (p)1657.PLFD1.144, The
A:England; London
M:6/4
L:1/4
Q:3/4=90
B:Playford, Dancing Master,Supplement to 3rd Ed.,1657
O:
H:1657.
Z:Chris Partington <www.cpartington.plus>
K:Bb
BFfd>cB|eg2f2d|ce2d>cB|ABc=e2f:|
|:c>dc/B/AFB|GBEe2d|cAFf>ed|egdc2B:|

